X:1648
T:The Glasgow Hornpipe
M:2/4
L:1/16
B:O'Neill's 1648
N:"collected by J. O'Neill"
Z:The last note of the first strain should be G2. This is a typo in the original
K:G
({c}BA) \
|GDB,D G2G-B|AGAB ec2~BA|Ggfg edcB|dc2A2 A2~B-A|
|GDB,D G2G-B|AGAB ec2~BA|Ggfe dcBA|B2G2 G4 :|
|: B-c \
|dgfg edcB|cBce dcBA|Ggfg edcB|dc2A2 A2B-c|
|dBBd ecce|fdef ag2~f-e|dgfe dcBA|B2G2G4 :|
